packages/icons/src/SVG/home-solid.svg

<!-- Generated by IcoMoon.io -->
<svg version="1.1" xmlns="http://www.w3.org/2000/svg" width="12" height="12" viewBox="0 0 12 12">
<title>home-solid</title>
<path d="M0 4.875l6-4.875 6 4.875-1 1.125-1-0.825v6.825h-3v-3h-2v3h-3v-6.905l-1.125 0.905-0.875-1.125z"></path>
</svg>

<svg width="12" height="12" viewBox="0 0 12 12" fill="none" xmlns="http://www.w3.org/2000/svg">
<path d="M0 4.875L6 0L12 4.875L11 6L10 5.175V12H7V9H5V12H2V5.09451L0.875 6L0 4.875Z" fill="#4C505B"/>
</svg>
